!!!COM: Gabriel Faure/
!!!CNT: Francais
!!!TXO: Francais
!!!OTL: Dans les Ruines d'une Abbaye
!!!OPS: Op. 2
!!!ONM: No. 1
!!!LYR: Victor Hugo
!!!ENC: Jacob Pegg
!!!YOR: Album of Twenty Songs (Vingt Me/lodies,) Volume I
!!!YOR: Edward B. Marks Music Corporation, RCA Building, Radio
!!!YOR: City, New York 20, N.Y.
!!!ODT: 1866/
!!NB: Vocal melody and text only encoded.
!!NB: First instance of melodic material only encoded.
**kern	**silbe
*clef G2	*
*k[f#c#g#]	*
*M6/8	*
*MM[allegretto]	*
!!created: 8/19/03 20:13
!!proofed and posted: 8/19/03 21:21
!!edit time: 29 min.
=1	=1
2r	.
4r	.
=2	=2
4r	.
2r	.
=3	=3
{4e	{Seuls,
8a	tous
4a	deux,
8b	ra-
=4	=4
4b	-vis,
8cc#	chan-
4.cc#	-tants,
=5	=5
4b	com-
8a	-me on
[4.g#	s'ai-
=6	=6
4.g#]	|
8f#}	-me;}
8r	.
8r	.
=7	=7
{4g#	{Com-
8b#	-me on
4cc#	cueil-
8dd#	-le
=8	=8
4dd#	le
8ee	prin-
4.ee	-temps
=9	=9
4b	que
8g#	Dieu
[4.f#	se\-
=10	=10
4.f#]	|
8e}	-me,}
8r	.
{8e	{Quels
=11	=11
(4e	ri-
8a)	|
4a	-res
8b	e/-
=12	=12
4b	-tin-
8cc#	-ce-
4.cc#	-lants
=13	=13
4b	dans
8a	ces
[4.ff#	om-
=14	=14
4.ff#]	|
8ee}	-bres,}
8r	.
8r	.
=15	=15
{4dd	{Ja-
8ff#	-dis
4ee	plei-
8cc#	-nes
=16	=16
4b	de
8dd	fronts
4.f#	blancs,
=17	=17
4e	de
8cc#	coeurs
[4.b	som-
=18	=18
4.b]	|
8a}	-bres.}
8r	.
8r	.
=19	=19
{4g#	{Ou\
8cc#	est
4b	tout
8a	frais
=20	=20
4g#	ma-
8cc#	-ri-
4.b}	-e/s,}
=21	=21
{4a	{Ou\
8g#	s'en-
[4.g#	-voi-
=22	=22
4.g#]	|
8f#}	-e,}
8r	.
8r	.
=23	=23
{4a	{Les
8dd#	char-
4cc#	-mants
8b	cris
=24	=24
4a	va-
8dd#	-ri-
4.cc#}	-e/s}
=25	=25
{4b	{De
8a	la
[4.a	joi-
=26	=26
4.a]	|
8g#}	-e}
8r	.
8r	.
=27	=27
{4a	{frais
8dd	e/-
4cc#	-chos
8b	me^-
=28	=28
4a	-le/s
8a	au
4.g#	vent
=29	=29
4a	qui
8ff#	fris-
[4.ee	-son-
=30	=30
4.ee]	|
8dd}	-ne,}
8r	.
8r	.
=31	=31
{4cc#	{Gai-
8dd#	-te/
4ee	que
8b	le
=32	=32
4a	noir
8b	cou-
4.cc#	-vent
=33	=33
4e	as-
8f#	-sai-
[4.g#	-son-
=34	=34
4.g#]	|
8e}	-ne,}
8r	.
8r	.
*-	*-
